X:173
T:Auretti's Dutch Skipper
M:6/8
L:1/8
B:Thompson's Compleat Collection of 200 Favourite Country Dances, vol. 1 (London, 1757)
Z:Transcribed and edited by Flynn Titford-Mock, 2007
Z:abc's:AK/Fiddler's Companion
K:Bb
F|BFB dcB|cAF e3|dcB (A/B/c)A|BFD B,2F|BFB dcB|cAF cde|dcB FBA|(B3 B2):|
|:F|Bdf fdB|ceg g2F|Bdf fdB|Acc c2F|Bdf fdB|cba b2e|dcB FBA|BFD B,2:|

